img/servicios-publicidad-icon.svg

<svg width="70" height="55" viewBox="0 0 70 55" fill="none" xmlns="http://www.w3.org/2000/svg">
<g clip-path="url(#clip0_485_2)">
<path d="M63 49.125H70V52.5625C70 53.4742 69.6313 54.3485 68.9749 54.9932C68.3185 55.6378 67.4283 56 66.5 56H3.5C2.57174 56 1.6815 55.6378 1.02513 54.9932C0.368749 54.3485 0 53.4742 0 52.5625V49.125H7V7.875C7 4.09375 10.15 1 14 1H56C57.8565 1 59.637 1.72433 60.9497 3.01364C62.2625 4.30295 63 6.05164 63 7.875V49.125ZM14 7.875V38.8125H56V7.875H14ZM28 45.6875V49.125H42V45.6875H28Z" fill="#C3B214"/>
</g>
<defs>
<clipPath id="clip0_485_2">
<rect width="70" height="55" fill="white"/>
</clipPath>
</defs>
</svg>

<svg width="70" height="55" fill="none" xmlns="http://www.w3.org/2000/svg"><g clip-path="url(#a)"><path d="M63 49.125h7v3.438c0 .911-.369 1.785-1.025 2.43A3.533 3.533 0 0 1 66.5 56h-63a3.533 3.533 0 0 1-2.475-1.007A3.407 3.407 0 0 1 0 52.563v-3.438h7V7.875C7 4.094 10.15 1 14 1h42c1.856 0 3.637.724 4.95 2.014A6.813 6.813 0 0 1 63 7.875v41.25zM14 7.875v30.938h42V7.875H14zm14 37.813v3.437h14v-3.438H28z" fill="#C3B214"/></g><defs><clipPath id="a"><path fill="#fff" d="M0 0h70v55H0z"/></clipPath></defs></svg>
